flaticon/sport/lacrosse.svg

<svg xmlns="http://www.w3.org/2000/svg" width="32" height="32" viewBox="0 0 24 24">
    <path d="M 20.816406 9.789062 C 22.515625 9.042969 23.714844 7.511719 23.953125 5.785156 C 24.144531 4.394531 23.730469 3.246094 23.355469 2.527344 C 23.027344 1.910156 22.53125 1.40625 21.90625 1.0625 L 21.867188 1.042969 C 20.570312 0.347656 19.082031 0.234375 17.675781 0.722656 C 16.257812 1.210938 15.105469 2.285156 14.507812 3.660156 C 13.390625 6.234375 12.820312 8.183594 12.796875 9.496094 L 12 10.292969 L 11.203125 9.496094 C 11.179688 8.183594 10.609375 6.234375 9.492188 3.660156 C 8.894531 2.285156 7.742188 1.214844 6.324219 0.722656 C 4.921875 0.230469 3.429688 0.347656 2.136719 1.042969 L 2.078125 1.074219 C 1.46875 1.40625 0.972656 1.910156 0.644531 2.527344 C 0.269531 3.246094 -0.140625 4.394531 0.046875 5.785156 C 0.285156 7.511719 1.484375 9.042969 3.183594 9.789062 C 5.835938 10.949219 7.832031 11.539062 9.164062 11.558594 L 9.949219 12.34375 L 1.191406 21.101562 C 0.914062 21.375 0.765625 21.742188 0.765625 22.128906 C 0.765625 22.515625 0.914062 22.878906 1.191406 23.152344 C 1.472656 23.4375 1.84375 23.578125 2.214844 23.578125 C 2.585938 23.578125 2.957031 23.433594 3.242188 23.152344 L 12 14.394531 L 20.761719 23.152344 C 21.042969 23.4375 21.414062 23.578125 21.785156 23.578125 C 22.15625 23.578125 22.527344 23.4375 22.8125 23.152344 C 23.085938 22.878906 23.234375 22.515625 23.234375 22.128906 C 23.234375 21.742188 23.085938 21.375 22.8125 21.101562 L 14.050781 12.34375 L 14.835938 11.558594 C 16.167969 11.539062 18.164062 10.949219 20.816406 9.789062 Z M 21.199219 1.613281 C 21.296875 1.65625 21.394531 1.699219 21.488281 1.75 C 21.492188 1.75 21.535156 1.773438 21.539062 1.773438 C 22.011719 2.035156 22.394531 2.421875 22.644531 2.902344 C 22.691406 2.984375 22.734375 3.078125 22.78125 3.175781 L 21.199219 3.175781 Z M 21.199219 3.976562 L 23.058594 3.976562 C 23.175781 4.441406 23.234375 4.984375 23.167969 5.578125 L 21.199219 5.578125 Z M 21.199219 6.378906 L 22.988281 6.378906 C 22.792969 6.96875 22.460938 7.515625 22.019531 7.980469 C 22.011719 7.980469 22.007812 7.976562 22 7.976562 L 21.199219 7.976562 Z M 18.800781 1.269531 C 19.339844 1.191406 19.878906 1.21875 20.402344 1.34375 L 20.402344 3.175781 L 18.800781 3.175781 Z M 18.800781 3.976562 L 20.402344 3.976562 L 20.402344 5.578125 L 18.800781 5.578125 Z M 18.800781 6.378906 L 20.402344 6.378906 L 20.402344 7.976562 L 18.800781 7.976562 Z M 18.800781 8.777344 L 20.402344 8.777344 L 20.402344 9.097656 C 19.824219 9.347656 19.292969 9.5625 18.800781 9.75 Z M 16.402344 2.386719 C 16.847656 1.988281 17.367188 1.675781 17.9375 1.476562 C 17.960938 1.46875 17.980469 1.464844 18 1.457031 L 18 3.175781 L 16.402344 3.175781 Z M 16.402344 3.976562 L 18 3.976562 L 18 5.578125 L 16.402344 5.578125 Z M 16.402344 6.378906 L 18 6.378906 L 18 7.976562 L 16.402344 7.976562 Z M 16.402344 8.777344 L 18 8.777344 L 18 9.976562 C 18 10 18.007812 10.015625 18.011719 10.039062 C 17.40625 10.25 16.871094 10.40625 16.402344 10.523438 Z M 2.800781 7.976562 L 2 7.976562 C 1.992188 7.976562 1.988281 7.980469 1.980469 7.980469 C 1.539062 7.515625 1.207031 6.96875 1.011719 6.378906 L 2.800781 6.378906 Z M 2.800781 5.578125 L 0.832031 5.578125 C 0.765625 4.984375 0.824219 4.441406 0.941406 3.976562 L 2.800781 3.976562 Z M 2.800781 3.175781 L 1.21875 3.175781 C 1.265625 3.078125 1.308594 2.984375 1.355469 2.902344 C 1.605469 2.425781 1.988281 2.035156 2.476562 1.769531 L 2.285156 1.417969 L 2.511719 1.75 C 2.605469 1.699219 2.703125 1.65625 2.800781 1.613281 Z M 5.199219 9.75 C 4.707031 9.5625 4.175781 9.347656 3.601562 9.097656 L 3.601562 8.777344 L 5.199219 8.777344 Z M 5.199219 7.976562 L 3.601562 7.976562 L 3.601562 6.378906 L 5.199219 6.378906 Z M 5.199219 5.578125 L 3.601562 5.578125 L 3.601562 3.976562 L 5.199219 3.976562 Z M 5.199219 3.175781 L 3.601562 3.175781 L 3.601562 1.34375 C 4.125 1.222656 4.664062 1.191406 5.199219 1.269531 Z M 7.601562 10.523438 C 7.132812 10.40625 6.59375 10.246094 5.988281 10.039062 C 5.992188 10.015625 6 10 6 9.976562 L 6 8.777344 L 7.601562 8.777344 Z M 7.601562 7.976562 L 6 7.976562 L 6 6.378906 L 7.601562 6.378906 Z M 7.601562 5.578125 L 6 5.578125 L 6 3.976562 L 7.601562 3.976562 Z M 7.601562 3.175781 L 6 3.175781 L 6 1.457031 C 6.019531 1.464844 6.042969 1.46875 6.0625 1.476562 C 6.636719 1.675781 7.15625 1.988281 7.601562 2.386719 Z M 15.242188 3.976562 L 15.601562 3.976562 L 15.601562 5.578125 L 14.589844 5.578125 C 14.777344 5.082031 14.992188 4.554688 15.242188 3.976562 Z M 14.308594 6.359375 C 14.339844 6.367188 14.367188 6.378906 14.398438 6.378906 L 15.601562 6.378906 L 15.601562 7.976562 L 13.824219 7.976562 C 13.9375 7.507812 14.097656 6.96875 14.308594 6.359375 Z M 12.917969 10.507812 C 12.925781 10.539062 12.945312 10.566406 12.957031 10.597656 C 12.976562 10.648438 12.996094 10.695312 13.019531 10.738281 C 13.039062 10.777344 13.058594 10.820312 13.082031 10.855469 C 13.128906 10.929688 13.179688 10.996094 13.238281 11.058594 C 13.242188 11.0625 13.246094 11.070312 13.25 11.078125 C 13.253906 11.078125 13.253906 11.082031 13.257812 11.082031 C 13.257812 11.082031 13.257812 11.082031 13.257812 11.085938 C 13.257812 11.085938 13.261719 11.085938 13.261719 11.089844 C 13.261719 11.089844 13.261719 11.089844 13.265625 11.089844 C 13.265625 11.089844 13.265625 11.089844 13.265625 11.09375 C 13.265625 11.09375 13.269531 11.09375 13.269531 11.09375 C 13.269531 11.09375 13.269531 11.097656 13.269531 11.097656 C 13.347656 11.171875 13.4375 11.238281 13.535156 11.296875 C 13.546875 11.300781 13.554688 11.304688 13.566406 11.308594 C 13.648438 11.355469 13.734375 11.398438 13.832031 11.429688 L 13.484375 11.777344 L 12.566406 10.859375 Z M 8.398438 3.976562 L 8.757812 3.976562 C 9.007812 4.554688 9.222656 5.082031 9.410156 5.578125 L 8.398438 5.578125 Z M 8.398438 6.378906 L 9.601562 6.378906 C 9.632812 6.378906 9.660156 6.367188 9.691406 6.359375 C 9.902344 6.96875 10.0625 7.507812 10.175781 7.976562 L 8.398438 7.976562 Z M 9.324219 10.761719 C 9.316406 10.761719 9.308594 10.765625 9.304688 10.765625 C 9.054688 10.769531 8.753906 10.742188 8.398438 10.6875 L 8.398438 8.777344 L 10.335938 8.777344 C 10.390625 9.117188 10.414062 9.410156 10.410156 9.652344 C 10.410156 9.65625 10.410156 9.65625 10.410156 9.660156 C 10.40625 9.863281 10.382812 10.039062 10.34375 10.183594 C 10.34375 10.1875 10.34375 10.191406 10.339844 10.195312 C 10.324219 10.257812 10.300781 10.316406 10.277344 10.367188 C 10.273438 10.375 10.269531 10.382812 10.265625 10.390625 C 10.238281 10.441406 10.207031 10.488281 10.171875 10.523438 C 10.132812 10.558594 10.089844 10.589844 10.035156 10.617188 C 10.03125 10.621094 10.027344 10.621094 10.027344 10.625 C 9.863281 10.707031 9.625 10.753906 9.324219 10.761719 Z M 2.675781 22.585938 C 2.421875 22.839844 2.007812 22.839844 1.753906 22.585938 C 1.632812 22.464844 1.566406 22.300781 1.566406 22.128906 C 1.566406 21.953125 1.632812 21.789062 1.753906 21.667969 L 10.515625 12.90625 L 11.433594 13.828125 Z M 22.246094 21.667969 C 22.367188 21.789062 22.4375 21.953125 22.4375 22.128906 C 22.4375 22.300781 22.367188 22.464844 22.246094 22.585938 C 21.992188 22.839844 21.578125 22.839844 21.324219 22.585938 L 10.167969 11.429688 C 10.265625 11.398438 10.355469 11.355469 10.4375 11.308594 C 10.445312 11.304688 10.457031 11.300781 10.464844 11.296875 C 10.5625 11.238281 10.652344 11.171875 10.730469 11.097656 C 10.730469 11.09375 10.730469 11.09375 10.734375 11.09375 C 10.734375 11.09375 10.734375 11.089844 10.734375 11.089844 L 10.738281 11.089844 C 10.738281 11.089844 10.738281 11.089844 10.738281 11.085938 C 10.742188 11.085938 10.742188 11.085938 10.742188 11.082031 C 10.746094 11.082031 10.746094 11.078125 10.75 11.078125 C 10.753906 11.070312 10.757812 11.0625 10.761719 11.058594 C 10.820312 10.996094 10.871094 10.929688 10.917969 10.855469 C 10.941406 10.820312 10.960938 10.777344 10.980469 10.738281 C 11.003906 10.691406 11.023438 10.644531 11.042969 10.597656 C 11.054688 10.566406 11.074219 10.539062 11.085938 10.507812 Z M 14.675781 10.761719 C 14.378906 10.753906 14.144531 10.707031 13.984375 10.628906 C 13.976562 10.625 13.972656 10.621094 13.96875 10.621094 C 13.921875 10.59375 13.882812 10.566406 13.847656 10.535156 C 13.839844 10.53125 13.835938 10.527344 13.832031 10.523438 C 13.792969 10.488281 13.761719 10.441406 13.734375 10.390625 C 13.730469 10.382812 13.726562 10.375 13.722656 10.367188 C 13.699219 10.316406 13.675781 10.261719 13.660156 10.195312 C 13.65625 10.191406 13.65625 10.1875 13.65625 10.183594 C 13.617188 10.039062 13.59375 9.863281 13.589844 9.660156 C 13.589844 9.65625 13.589844 9.65625 13.589844 9.652344 C 13.585938 9.410156 13.609375 9.117188 13.664062 8.777344 L 15.601562 8.777344 L 15.601562 10.6875 C 15.246094 10.742188 14.945312 10.769531 14.695312 10.765625 C 14.6875 10.765625 14.683594 10.761719 14.675781 10.761719 Z M 14.675781 10.761719"/>
</svg>

<svg xmlns="http://www.w3.org/2000/svg" width="32" height="32" viewBox="0 0 24 24">
    <path d="M20.816 9.79c1.7-.747 2.899-2.278 3.137-4.005.192-1.39-.223-2.539-.598-3.258a3.584 3.584 0 0 0-1.449-1.465l-.039-.019a5.179 5.179 0 0 0-4.191-.32 5.377 5.377 0 0 0-3.168 2.937c-1.117 2.574-1.688 4.524-1.711 5.836l-.797.797-.797-.797c-.023-1.312-.594-3.262-1.71-5.836A5.389 5.389 0 0 0 6.323.723a5.154 5.154 0 0 0-4.187.32l-.059.031A3.543 3.543 0 0 0 .645 2.527c-.375.72-.786 1.868-.598 3.258.238 1.727 1.437 3.258 3.137 4.004 2.652 1.16 4.648 1.75 5.98 1.77l.785.785-8.758 8.758c-.277.273-.425.64-.425 1.027 0 .387.148.75.425 1.023a1.43 1.43 0 0 0 1.024.426c.37 0 .742-.144 1.027-.426L12 14.395l8.762 8.757a1.446 1.446 0 0 0 2.473-1.023c0-.387-.15-.754-.422-1.027l-8.762-8.758.785-.785c1.332-.02 3.328-.61 5.98-1.77zm.383-8.177c.098.043.196.086.29.137.003 0 .046.023.05.023.473.262.856.649 1.106 1.13.046.081.09.175.136.273H21.2zm0 2.364h1.86c.117.464.175 1.007.109 1.601h-1.969zm0 2.402h1.79a4.294 4.294 0 0 1-.97 1.601c-.007 0-.011-.003-.019-.003h-.8zm-2.398-5.11a4.246 4.246 0 0 1 1.601.075v1.832h-1.601zm0 2.708h1.601v1.601h-1.601zm0 2.402h1.601v1.598h-1.601zm0 2.398h1.601v.32c-.578.25-1.109.466-1.601.653zm-2.399-6.39a4.56 4.56 0 0 1 1.535-.91c.024-.008.043-.012.063-.02v1.719h-1.598zm0 1.59H18v1.601h-1.598zm0 2.402H18v1.598h-1.598zm0 2.398H18v1.2c0 .023.008.039.012.062-.606.211-1.14.367-1.61.484zm-13.601-.8H2c-.008 0-.012.003-.02.003a4.294 4.294 0 0 1-.968-1.601H2.8zm0-2.399H.832a4.498 4.498 0 0 1 .11-1.601H2.8zm0-2.402H1.219c.047-.098.09-.192.136-.274.25-.476.633-.867 1.122-1.132l-.192-.352.227.332c.093-.05.191-.094.289-.137zM5.199 9.75a36.903 36.903 0 0 1-1.597-.652v-.32h1.597zm0-1.773H3.602V6.379h1.597zm0-2.399H3.602V3.977h1.597zm0-2.402H3.602V1.344a4.31 4.31 0 0 1 1.597-.074zm2.403 7.347a20.147 20.147 0 0 1-1.614-.484C5.992 10.016 6 10 6 9.977v-1.2h1.602zm0-2.546H6V6.379h1.602zm0-2.399H6V3.977h1.602zm0-2.402H6V1.457c.02.008.043.012.063.02a4.54 4.54 0 0 1 1.539.91zm7.64.8h.36v1.602H14.59c.187-.496.402-1.023.652-1.601zM14.31 6.36c.03.008.058.02.09.02h1.203v1.598h-1.778c.114-.47.274-1.008.485-1.618zm-1.391 4.149c.008.031.027.058.039.09.02.05.04.097.063.14.02.04.039.082.062.117.047.075.098.141.156.204a.085.085 0 0 1 .012.02c.004 0 .004.003.008.003v.004s.004 0 .004.004h.004v.004h.004v.004c.078.074.168.14.265.199l.031.012c.082.046.168.09.266.12l-.348.348-.918-.918zm-4.52-6.531h.36c.25.578.465 1.105.652 1.601H8.398zm0 2.402h1.204c.03 0 .058-.012.09-.02.21.61.37 1.149.484 1.618H8.398zm.926 4.383c-.008 0-.015.004-.02.004-.25.004-.55-.024-.906-.079v-1.91h1.938c.055.34.078.633.074.875v.008a2.192 2.192 0 0 1-.066.524c0 .004 0 .007-.004.011a.984.984 0 0 1-.063.172l-.011.024a.574.574 0 0 1-.094.132.602.602 0 0 1-.137.094c-.004.004-.008.004-.008.008-.164.082-.402.129-.703.137zM2.676 22.586a.653.653 0 0 1-.922 0 .644.644 0 0 1-.188-.457c0-.176.067-.34.188-.461l8.762-8.762.918.922zm19.57-.918a.65.65 0 0 1 0 .918.653.653 0 0 1-.922 0L10.168 11.43c.098-.032.187-.075.27-.121l.027-.012c.098-.059.187-.125.265-.2 0-.003 0-.003.004-.003v-.004h.004v-.004c.004 0 .004 0 .004-.004.004 0 .004-.004.008-.004a.085.085 0 0 1 .012-.02c.058-.062.11-.128.156-.203.023-.035.043-.078.062-.117.024-.047.043-.093.063-.14.012-.032.031-.059.043-.09zm-7.57-10.906c-.297-.008-.531-.055-.692-.133-.007-.004-.011-.008-.015-.008a.738.738 0 0 1-.121-.086c-.008-.004-.012-.008-.016-.012a.488.488 0 0 1-.098-.132l-.011-.024a.88.88 0 0 1-.063-.172c-.004-.004-.004-.008-.004-.011a2.192 2.192 0 0 1-.066-.524v-.008c-.004-.242.02-.535.074-.875h1.938v1.91a5.555 5.555 0 0 1-.907.079c-.008 0-.011-.004-.02-.004zm0 0"/>
</svg>
